X:1
T:O Kerstnacht
T:O Kerstnacht 
T:J v.d.Vondel
T:Sem Dresden
%%score [ 1 2 3 4 ]
L:1/8
Q:1/4=80
M:4/4
K:G
V:1 treble nm="Soprano" snm="S."
V:2 treble nm="Alto" snm="A."
V:3 treble-8 nm="Tenor" snm="T."
V:4 bass nm="Bass" snm="B."
V:1
 B4 E2 e2 | G2 G2 (A2 B)c | (B2 AG) F4 | z2 F2 G2 A2 | B2 ^c2 d2 B2 | e4 ^d4 | e4 B2 c2 | %7
w: 1.O kerst- nacht|schoo- ner dan _ de|da- * * gen.|Hoe kan Her-|ro- des 'tlicht ver-|drag- gen,|dat in uw|
w: 2.Hij poogt dón-|nooz- le te _ ver-|nie- * * len.|Door 'tmoor- den|van on- noo- zle|zie- len,|En werkt een|
 d2 cB A3 G | G4 z2 B2 | e3 d ^c2 A2 | d2 ed ^c4 | B4 z2 B2 | A2 B2 c2 B2 | A2 A2 ((A2 B))B | %14
w: dui- ster- * nis- se|blinkt. En|wordt ge- vierd en|aan- ge- * be-|den. Zijn|hoog- moed luis- tert|naar geen re _ _|
w: stad en _ land- ge-|schrei. In|Beth- le- hem en|op den _ ak-|ker. En|maakt den geest van|Ra- chel wa _ _|
 B2 AG F4 | z2 F2 G2 A2 | B4 e4 | ^d3 e e4 :| %18
w: _ _ _ den.|Hoe schel die|in zijn|oo- ren klinkt.|
w: _ _ _ ker.|Die wa- ren|gaat door|beemd en wei.|
V:2
 E2 ^D2 E2 F2 | G2 E2 F2 GA | B2 E2 ^D2 z2 | ^D2 E2 =D2 z2 | B2 E2 A2 GF | EFGA B3 A | GABc B2 A2 | %7
 G6 F2 | D4 z2 B2 | B3 B A4 | A2 B4 ^A2 | F2 F2 z2 z2 | z2 z6 | E4 B,2 B2 | G2 FE ^D4 | %15
 z2 ^D2 E2 =D2 | (D2 G2) (B2 A2) | FG G2 G4 :| %18
V:3
 (G2 AB) cB A2 | B4 e4 | ed ^c2 ^d2 d2 | z2 Bc B2 A2 | G2 A2 A2 B2 | cd e2 f2 B2 | g4 gf e2 | %7
 d2 e2 A3 z | B4 E2 e2 | GA B2 ^cd f2 | d4 g2 fe | ^d4 d2 e2 | f4 e3 d | cB A2 G2 G2 | %14
 ed ^c2 ^d2 z2 | z2 Bc B2 A2 | G6 c2 | B2 B2 B4 :| %18
V:4
 ((E,8 | F,2) D,2) C,2 A,2 | G,2 A,2 B,2 A,B, | C2 B,A, G,2 F,2 | G,4 (F,2 G,2) | C4 B,4 | %6
w: 1.Kerst|_ nacht schoo- ner|dan de da- gen, hoe|kan Her- * o- des|'tlicht ver- *|dra- gen|
w: 2.Hij|_ _ poogt dón-|noo- ze- le te ver|nie- len door't moor- den|van on _|noo- zle|
!p! E,4 E,D, C,2 | (B,,2 C,2) (D,4 | G,2) B,2 A,2 G,F, | E,F, G,2 A,3 G, | F,2 G,2 E,2 F,2 | %11
w: dat in _ uw|dui _ _|_ ster ni- se _|blinkt _ En wordt ge-|vierd en aan ge-|
w: zie- len * en|werkt _ een|stad en land- ge _|schrei _ In Beth- le-|hem en op den|
 B,2 A,G, F,2 E,2 | ^D,4 E,4 | E,4 E,4 | G,2 A,2 B,2 A,!pp!B, | C2 B,A, G,2 F,2 | %16
w: be _ _ den. Zijn|hoog- moed|naar geen|re- den luis- tert hoe|schel die _ in zijn|
w: ak _ _ ker. En|maakt den|Geest van|Rach- el wak- ker, die|wa- ren _ gaat door|
 (G,2 F,2 G,2 A,2 | B,2) B,,2 E,4 :| %18
w: oo _ _ _|_ ren klinkt.|
w: beemd _ _ _|_ en wei.|

